X: 1491
T: God Bless You and Bugger Me
B: australian traditional tunes wiki
M:2/4
L:1/16
R: Set Tune
Q: 1/4=100
K:G
V:1 
|:"G"G2G2 B2GB|"C"c2e2 "D7"d3c|"G"B2G2 B2GB|"C"c2e2 "D7"d3c|
"G"B2G2 B2GB|"C"c2e2 "G"d3B|ded^c "D"d3=c|1B2A2 "G"G2BA:|2B2A2 "C"G4||
|:"G"g4 g4|g6 ff|g2f2 e2d2|B2d2 "D7"A4|"Am"a4"Em"^g4|"Am"a4-a2 de|"G"d2d2 "D7"e2f2|"G"g6 z2:||
% abcbook-tune_id 6342d53aa25001432c34431e


% abcbook-boost 0
% abcbook-tablature 
% abcbook-transpose 
% abcbook-lastupdated 1665324367655
% abcbook-soundfonts 
% abcbook-repeats 1
% NFF Book 2006

